X:37
T:Cape Breton Jig, The
M:6/8
L:1/8
D:Josephine Marsh
R:Jig
Z:Julie Ross
K:G
d2c||BAG ~G3|Bcd BAG|EAA A2G|EAA ABc|
dBG ~G3|Bcd BAG|EcB AGF| G3 G2e||
dBG ~G3|Bcd BAG|EAA A2G|EAA ABc|
dBG ~G3|Bcd BAG|EcB AGF|G3 G2f||
g2e ede|b2e efg|f2d d^cd|add def|
g2e ede|b2e efg|afd afd|1 e3 e2f:|2 e3 edc ||
